svg/fluentui-system-icons/ic_fluent_pen_24_filled.svg

<svg width="24" height="24" viewBox="0 0 24 24" fill="none" xmlns="http://www.w3.org/2000/svg">
<path d="M15.8911 3.04727C17.2885 1.64967 19.5543 1.6496 20.9519 3.04712C22.3493 4.44453 22.3493 6.71015 20.952 8.10763L20.0606 8.99918C21.3252 10.2688 21.3236 12.3231 20.0559 13.5907L18.2725 15.3741C17.9796 15.667 17.5048 15.667 17.2119 15.3741C16.919 15.0812 16.919 14.6064 17.2119 14.3135L18.9953 12.5301C19.6771 11.8482 19.6787 10.7437 19 10.0599L9.00191 20.0591C8.59546 20.4656 8.08418 20.7514 7.52498 20.8845L2.92373 21.98C2.67037 22.0404 2.40385 21.9649 2.21968 21.7808C2.03552 21.5966 1.96009 21.3301 2.02041 21.0767L3.116 16.4753C3.2491 15.9162 3.5347 15.4051 3.94103 14.9987L15.8911 3.04727Z" fill="#212121"/>
</svg>

<svg xmlns="http://www.w3.org/2000/svg" width="24" height="24"><path d="M15.891 3.047a3.578 3.578 0 1 1 5.061 5.06L20.061 9a3.25 3.25 0 0 1-.005 4.592l-1.784 1.783a.75.75 0 1 1-1.06-1.06l1.783-1.784A1.75 1.75 0 0 0 19 10.06l-9.998 10a3.106 3.106 0 0 1-1.477.825L2.924 21.98a.75.75 0 0 1-.904-.903l1.096-4.602c.133-.559.419-1.07.825-1.476l11.95-11.952Z"/></svg>
